img/sidebar/about-active.svg

<?xml version="1.0" encoding="UTF-8"?>
<svg width="34px" height="34px" viewBox="0 0 34 34" version="1.1" xmlns="http://www.w3.org/2000/svg" xmlns:xlink="http://www.w3.org/1999/xlink">
    <!-- Generator: Sketch 62 (91390) - https://sketch.com -->
    <title>dollar-symbol (1)</title>
    <desc>Created with Sketch.</desc>
    <g id="Page-1" stroke="none" stroke-width="1" fill="none" fill-rule="evenodd">
        <g id="Desktop-HD-Copy-2" transform="translate(-988.000000, -249.000000)">
            <g id="Group-37" transform="translate(984.000000, 249.000000)">
                <g id="dollar-symbol-(1)" transform="translate(4.000000, 0.000000)">
                    <path d="M28.9177576,0.119310433 C31.1829192,0.119310433 33.025371,1.9619359 33.025371,4.22692376 L33.025371,4.22692376 L33.025371,21.2339573 C33.025371,23.4989452 31.1827455,25.3415707 28.917584,25.3415707 L28.917584,25.3415707 L9.75827353,25.3415707 C9.00020942,25.5537939 6.49017495,28.3231158 5.1371217,29.8159724 C2.49093092,32.7356915 1.79556123,33.418557 1.04166518,33.418557 L1.04166518,33.418557 L0.91741977,33.4109844 C0.631551845,33.3758888 0.374321287,33.2205095 0.213091559,32.9805644 C0.09048142,32.7982122 0.0284816754,32.5788686 0.0284816754,32.3287856 L0.0284816754,32.3287856 L0.0284816754,4.22692376 C0.0284816754,1.9619359 1.87110714,0.119310433 4.13609501,0.119310433 L4.13609501,0.119310433 Z M22.3,19.6 L22.3,17.4 L15.2994817,17.3993104 L15.3,5.5 L13,5.5 L13,19.6 L22.3,19.6 Z" id="Shape" fill="#000000" fill-rule="nonzero"></path>
                    <g id="Group-5" transform="translate(13.000000, 16.500000)"></g>
                </g>
            </g>
        </g>
    </g>
</svg>

<svg width="34" height="34" xmlns="http://www.w3.org/2000/svg"><g fill="none" fill-rule="evenodd"><path d="M28.918.12a4.112 4.112 0 014.107 4.107v17.007a4.112 4.112 0 01-4.107 4.108H9.758c-.758.212-3.268 2.981-4.62 4.474-2.647 2.92-3.342 3.603-4.096 3.603l-.125-.008a.992.992 0 01-.704-.43 1.145 1.145 0 01-.185-.652V4.227A4.112 4.112 0 014.136.119zM22.3 19.6v-2.2h-7V5.5H13v14.1h9.3z" fill="#000" fill-rule="nonzero"/></g></svg>
